X: 29481
T: Night Weavers, The
R: waltz
M: 3/4
K: Bminor
|:A/G|FBf b3/2c'/b|afd e3/2c/A|F3/2E/F A3/2F/A|B3/2c/B/A/ B3/2A/G|
FBf b3/2c'/b|afd e3/2d/e|fdB c3/2A/c|B3 B3/2:|
|:f/a|b3/2c'/b a3/2f/d|efd B3/2F/A|B3/2c/B d3/2e/f|e3/2f/a b3/2f/a|
b3/2c'/b a3/2f/d|efd B3/2d/e|fdB c3/2A/c|B3 B3/2:|

